Newaita/actions/22/format-text-direction-ltr.svg

<svg height="22" viewBox="0 0 22 22" width="22" xmlns="http://www.w3.org/2000/svg"><g fill="#424242"><path d="m7.277344 4.039062c-2.027344 0-3.789063.820313-4.730469 2.042969l1.511719.945313c.574218-.699219 1.679687-1.171875 2.957031-1.171875h.523437c1.871094 0 3.375 1.015625 3.375 2.273437v2.730469c-.964843-.644531-2.238281-1.039063-3.636718-1.039063-3.023438 0-5.457032 1.828126-5.457032 4.09375v.457032h.03125c.300782 2.050781 2.605469 3.636718 5.425782 3.636718 1.398437 0 2.671875-.390624 3.636718-1.035156v.9375h1.820313v-9.78125c0-2.265625-2.433594-4.089844-5.457031-4.089844zm-.261719 7.601563h.523437c1.871094 0 3.375 1.015625 3.375 2.273437 0 1.261719-1.503906 2.273438-3.375 2.273438h-.523437c-1.871094 0-3.378906-1.011719-3.378906-2.273438 0-1.257812 1.507812-2.273437 3.378906-2.273437zm0 0"/><path d="m16.828125 17.910156v-1.820312h-1.808594c-.25 0-.453125.203125-.453125.453125v.910156c0 .253906.203125.457031.453125.457031zm0 0"/><path d="m15.464844 13.816406v6.367188l4.546875-3.183594zm0 0"/></g></svg>

<?xml version="1.0" encoding="UTF-8"?>
<svg xmlns="http://www.w3.org/2000/svg" xmlns:xlink="http://www.w3.org/1999/xlink" width="22px" height="22px" viewBox="0 0 22 22" version="1.1">
<g id="surface1">
<path style=" stroke:none;fill-rule:nonzero;fill:rgb(25.882354%,25.882354%,25.882354%);fill-opacity:1;" d="M 7.277344 4.039062 C 5.25 4.039062 3.488281 4.859375 2.546875 6.082031 L 4.058594 7.027344 C 4.632812 6.328125 5.738281 5.855469 7.015625 5.855469 L 7.539062 5.855469 C 9.410156 5.855469 10.914062 6.871094 10.914062 8.128906 L 10.914062 10.859375 C 9.949219 10.214844 8.675781 9.820312 7.277344 9.820312 C 4.253906 9.820312 1.820312 11.648438 1.820312 13.914062 L 1.820312 14.371094 L 1.851562 14.371094 C 2.152344 16.421875 4.457031 18.007812 7.277344 18.007812 C 8.675781 18.007812 9.949219 17.617188 10.914062 16.972656 L 10.914062 17.910156 L 12.734375 17.910156 L 12.734375 8.128906 C 12.734375 5.863281 10.300781 4.039062 7.277344 4.039062 Z M 7.015625 11.640625 L 7.539062 11.640625 C 9.410156 11.640625 10.914062 12.65625 10.914062 13.914062 C 10.914062 15.175781 9.410156 16.1875 7.539062 16.1875 L 7.015625 16.1875 C 5.144531 16.1875 3.636719 15.175781 3.636719 13.914062 C 3.636719 12.65625 5.144531 11.640625 7.015625 11.640625 Z M 7.015625 11.640625 "/>
<path style=" stroke:none;fill-rule:nonzero;fill:rgb(25.882354%,25.882354%,25.882354%);fill-opacity:1;" d="M 16.828125 17.910156 L 16.828125 16.089844 L 15.019531 16.089844 C 14.769531 16.089844 14.566406 16.292969 14.566406 16.542969 L 14.566406 17.453125 C 14.566406 17.707031 14.769531 17.910156 15.019531 17.910156 Z M 16.828125 17.910156 "/>
<path style=" stroke:none;fill-rule:nonzero;fill:rgb(25.882354%,25.882354%,25.882354%);fill-opacity:1;" d="M 15.464844 13.816406 L 15.464844 20.183594 L 20.011719 17 Z M 15.464844 13.816406 "/>
</g>
</svg>
